X:1
T:Title
%%score 1 { 2 | 3 }
L:1/8
Q:1/4=112
M:4/4
K:F
V:1 treble nm="Grand Piano, Staff 1"
V:2 bass nm="Choir Pad, Providence"
V:3 bass 
V:1
 C2 [CF]2 [CF]2 [EG]2 | [EG]2 [FA]2 [Fc]2 [EG]2 | [GB]2 [FA]2 [FA]2 [CG]2 | F2 [EG]6 | %4
w: By~Solomon~W.~Straub * * *||||
 C2 [CF]2 [CF]2 [EG]2 | [EG]2 [FA]2 [Fc]2 [EG]2 | [EB]2 [FA]2 F2 [DG]2 | [CE]2 [CF]6 | %8
w: ||||
 [Fc]2 [Fd]2 [Fc]2 [FA]2 | [Fc]2 [Fd]2 [Fc]2 [FA]2 | [Fc]2 [Fd]2 [Fc]2 [FA]2 | [Fc]2 [EG]6 | %12
w: ||||
 C2 [CF]2 [CF]2 [EG]2 | [EG]2 [FA]2 [Fc]2 [EG]2 | [EB]2 [FA]2 F2 [DG]2 | [CE]2 [CF]6- | %16
w: ||||
 [CF]2 z2 z4 |] %17
w: |
V:2
 A,2 A,2 A,2 C2 | C2[K:treble] C2 C2 C2 | C2 C2 C2 C2 | =B,2 C6 | B,2 A,2 A,2[K:treble] C2 | %5
 C2 C2 C2 C2 | C2 C2 C2[K:bass] B,2 | B,2 A,6 | A,2 B,2 A,2 C2 | A,2 B,2 A,2 C2 | %10
 A,2 B,2 A,2[K:treble] C2 | C2 C6 | B,2 A,2 A,2 C2 | C2 C2 C2 C2 | C2 C2[K:bass] C2 B,2 | %15
 B,2 A,6- | A,2 z2 z4 |] %17
V:3
 F,2 F,2 F,2 C,2 | C,2 F,2 A,,2 C,2 | C,2 F,2 F,2 E,2 | D,2 C,6 | C,2 F,2 F,2 C,2 | %5
 C,2 F,2 A,,2 C,2 | C,2 F,2 A,,2 B,,2 | C,2 F,6 | F,2 F,2 F,2 F,2 | F,2 F,2 F,2 F,2 | %10
 F,2 F,2 F,2 F,2 | A,,2 C,6 | C,2 F,2 F,2 C,2 | C,2 F,2 A,,2 C,2 | C,2 F,2 A,,2 B,,2 | %15
 C,2 [F,,F,]6- | [F,,F,]2 z2 z4 |] %17

